X: 165
T:Gankino
O:Bulgaria
S:Adapted from Deborah Jones, Vancouver Int'l Folk Dance Music Book
F:http://www.youtube.com/watch?v=OFu2Fh2zn4M
Q:1/4=160
L:1/8
M:11/8
P:ABCDCDEFABCDCD
K:C
%%MIDI gchord f2c2f2cf2c2
%%MIDI beatstring fpmpmppmpmp
P:A
|:"C" G2 [ec][ec] [e2c2] [ec] [e2c2] [e2c2] |\
"G7" [ge][bg][af][ge] [fd][ec][fd] "C" [ge][fd] [e2c2]|
"C" G2 [ec][ec] [e2c2] [ec] [e2c2] [e2c2] |\
"G7" [ge][bg][af][ge] [fd][ec][fd] "C" [ge][fd] [e2c2] :|
%%sep 10 10
P:B
|: "C" cGcd ~e2 d "Am" cB A2|"D7" B2 c2 "G7" ~d2 c "C" BccG:|
%%sep 10 10
P:C
|:"F" [ge][af] [a2f2] [af][bg][af] "C" [g2e2] [ge][ec]|\
[ge][ec] "G7" [fd][dB] "C" [e2c2][fd] [g2e2] [ge][ec]|\
[ge][ec] "G7" [fd][dB] "C" [e2c2][cG] [e2c2]z2 :|
%%sep 10 10
P:D
|: "C" [ge][ec] "G7" [fd][dB] "C" [e2c2][fd] [g2e2] [ge][ec]|\
[ge][ec] "G7" [fd][dB] "C" [e2c2] [cG] [ec][cG] [ec][cG]|\
[ge][ec] "G7" [fd][dB] "C" [e2c2] [cG] [e2c2] z2 :|
%%sep 10 10
P:E
|: "D" [bg][c'a] [a2^f2] [ge][^fd][ec] [f2d2] [fd][dA] |\
[bg][c'a] [a2^f2] [ge][^fd][ec] [f2d2] [fd][dA] |
[bg][c'a] [a2^f2] [bg][c'a][af] [bg][c'a] [a2f2]|\
[bg][c'a] [a2^f2] [ge][^fd][ec] [f2d2] [fd][dA] |
[bg][c'a] [a2^f2] [ge][^fd][ec] [f2d2] [fd][dA] |\
[bg][c'a] [a2^f2] [ge][^fd][ec] [f2d2] [fd][dA] |
[bg][c'a] [a2^f2] [bg][c'a][af] [bg][c'a] [a2f2]|\
[bg][c'a] [a2^f2] [ge][^fd][ec] [^f2d2][fd] z :|
%%sep 10 10
P:F
|: "G7" [dB][ec] [f2d2] [fd][dB][fd] "C" [e2c2] [ec][cG] |\
[dB][ec] "G7" [f2d2] [fd][dB][fd] "C" [e2c2] [ec][cG] |\
"G7" [dB][ec] [f2d2] [fd][dB][fd] "C" [e2c2] [ec][cG] |
"D7" dcBc "G7" d2c ~d2 dc|\
[dB][ec] "G7" [f2d2] [fd][dB][fd] "C" [e2c2] [ec][cG] |\
[dB][ec] "G7" [f2d2] [fd][dB][fd] "C" [e2c2] [ec][cG] |\
"G7" dcBc d2 G d2 z2:|



